X:1
T:Little Donald in the Pigpen
M:C|
L:1/8
K:D
"A"e2 cA eAcA|Aeec "D"defa|"A"e2 cA eA c2|"G"BABc "D"defa|!
"A"e2 cA eAcA|Aeec "D"defa|"A"eecA eA c2|"G"BABc "D"defd:|]!
"A"eaaf "G"gf"/E"ed|"A"eaaf "G"g2 "/E"fe|"A"eaaf "G"gf"/E"ed|"A"cABc "D"defd|!
"A"eaaf "G"gf"/E"ed|"A"eaaf "G"g2 "/E"fg|"D"afge faed|"Em"BGGd "G"BGBd:|]!
